!!!!SEGMENT: pl-wnifc--6022-n--006_elsner-jozef--rondo-a-la-mazurek.krn
!!!cenid: 18xx:3923
!!!COM: Elsner, Józef
!!!COM-rismID: pe30000957
!!!CDT: 1769/06/01-1854/04/18
!!!CNT: Polish
!!!OTL: Rondo a la Mazurek
!!!PDT:
!!!AGN:
!!!SMS-siglum: PL-Wnifc
!!!SMS-shelfmark: 6022/n
!!!SMS-shelfwork: 006 W
!!!SMS-variant:
!!!SMS-altvar:
!!!NIFC-rismSourceID: 1001134343
!!!NIFC-rismChildID: 1001134350
!!!NIFC-islandoraID: nifc:212599
!!!URL-pdf-islandora: https://repozytorium.nifc.pl/islandora/object/nifc%3A212599/datastream/PDF/view
!!!URL-scan: https://polish.musicsources.pl/pl/lokalizacje/galeria/druki-muzyczne/16849 @EN{Scan on Polish Music Sources Website} @PL{Skany w portalu Dziedzictwo Muzyki Polskiej w otwartym dostępie}
!!!ONB-nifc: UWAGA: s. 16-19
!!!AIN: 2 piano
!!!key: C
**kern	**kern	**dynam
*staff2	*staff1	*staff1/2
*>[A,A,B,B,C,C,D,D,E]	*>[A,A,B,B,C,C,D,D,E]	*>[A,A,B,B,C,C,D,D,E]
*>A	*>A	*>A
*I"Rondo	*I"Rondo	*
*Ipiano	*Ipiano	*
*ICklav	*ICklav	*
*clefG2	*clefG2	*
*kcancel	*kcancel	*
*k[]	*k[]	*
*C:	*C:	*
*M3/8	*M3/8	*
=1	=1	=1
!	!LO:TUP:a:problem=klamra łukowa	!
!	!LO:TX:a:i:cj:t=a la Mazurék	!
8gL 8e 8c/	24ee\LL	.
.	24ff\	.
.	24gg\JJ	.
8g 8e 8c/	8.cc\L	.
8gJ 8e 8c/	.	.
.	16ee\Jk	.
=2	=2	=2
*tremolo	*	*
8gL 8f 8B/	(16gg\LL	.
.	16ff\JJ)	.
8g 8f 8B/	4dd\	.
8gJ 8f 8B/	.	.
=3	=3	=3
8gL 8e 8c/	(16cc\LL	.
.	16b\	.
8g 8e 8c/	16cc\	.
.	16dd\	.
8gJ 8e 8c/	16ee\	.
.	16cc\JJ)	.
=4	=4	=4
8dL 8B 8G/	16dd\LL	.
.	16b\JJ	.
8d 8B 8G/	4g/	.
8dJ 8B 8G/	.	.
=5	=5	=5
*clefF4	*	*
8cL 8G 8E\	16cc\LL	.
.	16b\	.
8c 8G 8E\	16cc\	.
.	16dd\JJ	.
!	!LO:TUP:a:problem=klamra łukowa	!
8cJ 8G 8E\	24ee\LL	.
.	24dd\	.
.	24cc\JJ	.
=6	=6	=6
8dL 8A 8F\	16a\LL	.
.	16ff\JJ	.
8d 8A 8F\	8.dd\L	.
8dJ 8A 8F\	.	.
.	16cc\Jk	.
=7	=7	=7
8fL 8d 8G\	(16cc\LL	.
.	16b\	.
8f 8d 8G\	16a\	.
.	16g\	.
8fJ 8d 8G\	16a\	.
.	16b\JJ)	.
=8	=8	=8
8eL 8c\	(16dd\LL	.
.	16cc\JJ)	.
8e 8c\	4cc\	.
8eJ 8c\	.	.
*Xtremolo	*	*
!!LO:LB:g=original
=9:|!|:	=9:|!|:	=9:|!|:
*>B	*>B	*>B
8dL 8B 8G\	8.dd\L	.
8d 8B 8G\	.	.
.	16ee\Jk	.
*	*Xtuplet	*
!	!LO:TUP:a:problem=klamra łukowa	!
8c#XJ 8A#X 8G\	24cc#X\LL	rf
.	24dd\	.
.	24ee\JJ	.
=10	=10	=10
*tremolo	*	*
8dL 8B 8G\	16dd\LL	.
.	16gg\	.
8d 8B 8G\	16b\	.
.	16gg\	.
8dJ 8B 8G\	16g\	.
.	16gg\JJ	.
*Xtremolo	*	*
=11	=11	=11
8eL 8c 8G\	8ee\L	.
8e 8c 8G\	8ff\J	.
!	!LO:TUP:a:problem=klamra łukowa	!
8dJ 8B 8G\	24dd\LL	rf
.	24ee\	.
.	24ff\JJ	.
=12	=12	=12
*tremolo	*	*
8eL 8c 8G\	16ee\LL	.
.	16gg\	.
8e 8c 8G\	16cc\	.
.	16gg\	.
8eJ 8c 8G\	16g\	.
.	16gg\JJ	.
*Xtremolo	*	*
=13	=13	=13
8fL 8d 8G\	8.ff\L	.
8f 8d 8G\	.	.
.	16gg\Jk	.
!	!LO:TUP:a:problem=klamra łukowa	!
8eJ 8c#X 8G\	24ee\LL	rf
.	24ff\	.
.	24gg\JJ	.
=14	=14	=14
8fL 8d 8G\	16ff\LL	.
.	16aa\	.
8f 8d 8G\	16dd\	.
.	16aa\	.
8fJ 8d 8G\	16b\	.
.	16aa\JJ	.
=15	=15	=15
!	!LO:TX:t=P:problem=mixed beam	!
[4.f 4.d 4.B 4.G\	8g/L	.
.	8ddd\	.
.	8bb\J	.
=16	=16	=16
4f] 4d 4B 4G\	8gg\L	.
!	!LO:N:vis=8.	!
.	8fff\	.
8r	8eee\J	.
=17	=17	=17
4.r	(16ddd\LL	>
.	16ccc\	.
.	16bb\	.
.	16ccc\	.
.	16bb\	.
.	16aa\JJ)	]
!!LO:LB:g=original
=18	=18	=18
4.r	(16gg\LL	.
.	16ff#X\	.
.	16gg\	.
.	16aa\	.
.	16gg\	.
.	16ff#\JJ)	.
=19	=19	=19
4.r	(16gg\LL	.
!	!LO:SIC:v:o=16ff\	!
.	16ff#	.
.	16gg\	.
.	16aa\	.
.	16gg\	.
!	!LO:SIC:v:o=16ff\JJ)	!
.	16ff#JJ)	.
=20	=20	=20
4.r	4.ffn\	.
=21	=21	=21
*clefG2	*tuplet	*
!	!LO:TUP:a:problem=klamra łukowa	!
8gL 8e 8c/	24ee\LL	mf
.	24ff\	.
.	24gg\JJ	.
8g 8e 8c/	8.cc\L	.
8gJ 8e 8c/	.	.
.	16ee\Jk	.
=22	=22	=22
*tremolo	*	*
8gL 8f 8B/	(16gg\LL	.
.	16ff\JJ)	.
8g 8f 8B/	4dd\	.
8gJ 8f 8B/	.	.
=23	=23	=23
8gL 8e 8c/	16cc\LL	.
.	16b\	.
8g 8e 8c/	16cc\	.
.	16dd\	.
8gJ 8e 8c/	16ee\	.
.	16cc\JJ	.
=24	=24	=24
8dL 8B 8G/	16dd\LL	.
.	16b\JJ	.
8d 8B 8G/	4g/	.
8dJ 8B 8G/	.	.
=25	=25	=25
*clefF4	*	*
8cL 8G 8E\	16cc\LL	.
.	16b\	.
8c 8G 8E\	16cc\	.
.	16dd\JJ	.
!	!LO:TUP:a:problem=klamra łukowa	!
8cJ 8G 8E\	24ee\LL	.
.	24dd\	.
.	24cc\JJ	.
=26	=26	=26
8dL 8A 8F\	16a\LL	.
.	16ff\JJ	.
8d 8A 8F\	8.dd\L	.
8dJ 8A 8F\	.	.
.	16cc\Jk	.
=27	=27	=27
8fL 8d 8G\	(16cc\LL	.
.	16b\	.
8f 8d 8G\	16a\	.
.	16g\	.
8fJ 8d 8G\	16a\	.
.	16b\JJ)	.
!!LO:LB:g=original
=28	=28	=28
8eL 8c\	(16dd\LL	.
.	16cc\JJ)	.
8e 8c\	4cc\	.
8eJ 8c\	.	.
*Xtremolo	*	*
=29:|!|:	=29:|!|:	=29:|!|:
*>C	*>C	*>C
16cLL 16A\	(16aa\LL	.
16e\	16ccc\JJ)	.
16c 16A\	8.eee\L	.
16e\	.	.
16B 16G#X\	.	.
16e\JJ	16ddd\Jk	.
=30	=30	=30
*tremolo	*	*
16cLL 16A\	16ccc\LL	.
16e\	(16bb\	.
16c 16A\	16aa\	.
16e\	16ccc\	.
16c 16A\	16bb\	.
16e\JJ	16aa\JJ)	.
=31	=31	=31
16G#XLL 16E\	16bb\LL	.
16B\	16eee\JJ	.
16G# 16E\	4ee\	rf
16B\	.	.
16G# 16E\	.	.
16B\JJ	.	.
=32	=32	=32
16G#XLL 16E\	16bb\LL	.
16B\	16eee\JJ	.
16G# 16E\	4ee\	rf
16B\	.	.
16G# 16E\	.	.
16B\JJ	.	.
=33	=33	=33
16GnLL 16D\	8r	.
16c\	.	.
16G 16D\	8fffL 8ff\	f
16c\	.	.
16G 16D\	8fffJ 8ff\	.
16c\JJ	.	.
=34	=34	=34
16GLL 16E\	8.eeeL 8.ee\	.
16c\	.	.
16G 16E\	.	.
16c\	16dddL 16dd\	.
16G 16E\	16ccc 16cc\	.
16c\JJ	16bbJJ 16b\	.
*Xtremolo	*	*
=35	=35	=35
16ALL 16F\	8aaL 8a\	.
16d\	.	.
16A 16F\	(8.fff\	.
16d\	.	.
16B 16G\	.	.
16d\JJ	16ddd\Jk)	.
=36	=36	=36
*clefG2	*	*
*tremolo	*	*
(16eLL 16c/	(16ddd\LL	.
16g/	16ccc\JJ)	.
16e 16c/	4ccc\	.
16g/	.	.
16e 16c/	.	.
16g/JJ)	.	.
*clefF4	*	*
!!LO:PB:g=original
=37:|!|:	=37:|!|:	=37:|!|:
*>D	*>D	*>D
(16BLL 16G#X\	(16bb\LL	p
16e\	16ccc\	.
16B 16G#\)	16ddd\	.
16e\	16eee\JJ)	.
*	*Xtuplet	*
!	!LO:TUP:a:problem=klamra łukowa	!
16c 16A\	24ccc\LL	rf
.	24bb\	.
16e\JJ	.	.
.	24aa\JJ	.
=38	=38	=38
(16dLL 16B\	(16gg#X\LL	.
16e\	16aa\	.
16d 16B\	16bb\	.
16e\)	16gg#\	.
16c 16A\	16aa\	.
16e\JJ	16ccc\JJ)	.
=39	=39	=39
16BLL 16G#X\	16bb\LL	.
16e\	16ccc\	.
16B 16G#\	16ddd\	.
16e\	16eee\JJ	.
!	!LO:TUP:a:problem=klamra łukowa	!
16c 16A\	24ccc\LL	rf
.	24bb\	.
16e\JJ	.	.
.	24aa\JJ	.
=40	=40	=40
16dLL 16B\	16gg#X\LL	.
16e\	16aa\	.
16d 16B\	16bb\	.
16e\	16gg#\	.
16c 16A\	16aa\	.
16e\JJ	16ccc\JJ	.
=41	=41	=41
*Xtremolo	*	*
16FLL 16D\	8r	.
16B\	.	.
16F 16D\	8dddL 8dd\	f
16B\	.	.
16F 16D\	8dddJ 8dd\	.
16B\JJ	.	.
=42	=42	=42
*tremolo	*	*
(16A 16E\LL	8.ccc 8.cc\L	.
16c\	.	.
16A 16E\	.	.
16c\	16bb 16b\L	.
16A 16E\	16ccc 16cc\	.
16c\JJ)	16aa 16a\JJ	.
=43	=43	=43
!	!LO:TUP:a:problem=klamra łukowa	!
(16BLL 16E\	24aa\LL	.
.	24bb\	.
16d\	.	.
.	24aa\JJ	.
16B 16E\	8.gg#X\L	.
16d\	.	.
16B 16E\	.	.
16d\JJ)	16bb\Jk	.
=44	=44	=44
(16cLL 16A\	16bb\LL	.
16e\	16aa\JJ	.
16c 16A\	4aa\	.
16e\	.	.
16c 16A\	.	.
16e\JJ)	.	.
=45:|!	=45:|!	=45:|!
*>E	*>E	*>E
16ALL 16F\	8r	f
16d\	.	.
16A 16F\	8dddL 8dd\	.
16d\	.	.
16A 16F\	8dddJ 8dd\	.
16d\JJ	.	.
!!LO:LB:g=original
=46	=46	=46
(16ALL 16F\	8r	.
16d\	.	.
16A 16F\	8dddL 8dd\	.
16d\	.	.
16A 16F\	8dddJ 8dd\	.
16d\JJ)	.	.
=47	=47	=47
(16ALL 16F\	8.fffL 8.ff\	.
16d\	.	.
16A 16F\	.	.
16d\	16eeeL 16ee\	.
16A 16F\	16ddd 16dd\	.
16d\JJ)	16cccJJ 16cc\	.
=48	=48	=48
16dLL 16G\	8.bbL 8.b\	.
16f\	.	.
16d 16G\	.	.
16f\	(16ggL 16g\	.
16d 16G\	16aa 16a\	.
16f\JJ	16bbJJ 16b\)	.
=49	=49	=49
(16eLL 16c\	8r	.
16g\	.	.
16e 16c\	8cccL 8cc\	.
16g\	.	.
16e 16c\	8cccJ 8cc\	.
16g\JJ)	.	.
=50	=50	=50
(16cLL 16A\	8r	.
16e\	.	.
16c 16A\	8eeeL 8ee\	.
16e\	.	.
16c 16A\	8eeeJ 8ee\	.
16e\JJ)	.	.
=51	=51	=51
(16ALL 16F\	8.fffL 8.ff\	.
16d\	.	.
16A 16F\	.	.
16d\	16eeeL 16ee\	.
16A 16F\	16ddd 16dd\	.
16d\JJ)	16cccJJ 16cc\	.
=52	=52	=52
16dLL 16G\	8.bbL 8.b\	.
16f\	.	.
16d 16G\	.	.
16f\	(16ggL 16g\	.
16d 16G\	16aa 16a\	.
16f\JJ	16bbJJ 16b\)	.
=53	=53	=53
*clefG2	*	*
(16eLL 16c/	8cccL 8cc\	fp
16g/	.	.
16e 16c/	8ccc\	.
16g/	.	.
16e 16c/	8ccc\J	.
16g/JJ)	.	.
=54	=54	=54
*	*tuplet	*
!	!LO:TUP:a:problem=klamra łukowa	!
(16fLL 16d/	24bb\LL	.
.	24ccc\	.
16g/	.	.
.	24ddd\JJ	.
16f 16d/	8gg\	.
16g/	.	.
16f 16d/	8r	.
16g/JJ)	.	.
=55	=55	=55
*	*clefF4	*
(16eLL 16c/	8r	.
16g/	.	.
16e 16c/	8C/L	p
16g/	.	.
16e 16c/	8C/J	.
16g/JJ)	.	.
!!LO:LB:g=original
=56	=56	=56
*	*Xtuplet	*
!	!LO:TUP:b:problem=klamra łukowa	!
(16fLL 16d/	24BB/LL	.
.	24C/	.
16g/	.	.
.	24D/JJ	.
16f 16d/	8GG/	.
16g/	.	.
16f 16d/	8r	.
16g/JJ)	.	.
=57	=57	=57
*	*clefG2	*
(16eLL 16c/	8r	.
16g/	.	.
16e 16c/	8ee\L	pp
16g/	.	.
16e 16c/	8ee\J	.
16g/JJ)	.	.
=58	=58	=58
(16dLL 16B/	(16gg\LL	.
16g/	16ff\JJ	.
16d 16B/	8dd\)	.
16g/	.	.
16d 16B/	8r	.
16g/JJ)	.	.
=59	=59	=59
*	*clefF4	*
(16eLL 16c/	8r	.
16g/	.	.
16e 16c/	8E\L	.
16g/	.	.
16e 16c/	8E\J	.
16g/JJ)	.	.
=60	=60	=60
(16dLL 16B/	(16G\LL	.
16g/	16F\JJ	.
16d 16B/	8D\)	.
16g/	.	.
16d 16B/	8r	.
16g/JJ)	.	.
=61	=61	=61
(16eLL 16c/	(16C/LL	.
16g/	16BB/	.
16e 16c/	16C/	.
16g/	16D/JJ)	.
*	*tuplet	*
!	!LO:TUP:b:problem=klamra łukowa	!
16e 16c/	24E/LL	.
.	24D/	.
16g/JJ)	.	.
.	24C/JJ	.
=62	=62	=62
(16fLL 16d/	(16BB/LL	.
16g/	16D/JJ)	.
16f 16d/	8GG/	.
16g/	.	.
16f 16d/	8r	.
16g/JJ)	.	.
=63	=63	=63
*	*clefG2	*
(16eLL 16c/	16ccc\LL	.
16g/	16bb\	.
16e 16c/	16ccc\	.
16g/	16ddd\JJ	.
*	*Xtuplet	*
!	!LO:TUP:a:problem=klamra łukowa	!
16e 16c/	24eee\LL	<
.	24ddd\	.
16g/JJ)	.	.
.	24ccc\JJ	.
=64	=64	=64
(16fLL 16d/	16bb\LL	.
16g/	16ddd\JJ	[
16f 16d/	8.gg\L	.
16g/	.	.
16f 16d/	.	.
16g/JJ)	16bb\Jk	.
!!LO:LB:g=original
=65	=65	=65
8gL 8e 8c/	16ccc\LL	ff
.	16eee\	.
8g 8e 8c/	16gg\	.
.	16eee\	.
8gJ 8e 8c/	16ccc\	.
.	16eee\JJ	.
=66	=66	=66
8gL 8d 8B/	16ddd\LL	.
.	16fff\	.
8g 8d 8B/	16gg\	.
.	16fff\	.
8gJ 8d 8B/	16ddd\	.
.	16fff\JJ	.
=67	=67	=67
8gL 8e 8c/	16ccc\LL	.
.	16eee\	.
8g 8e 8c/	16gg\	.
.	16eee\	.
8gJ 8e 8c/	16ccc\	.
.	16eee\JJ	.
=68	=68	=68
8gL 8d 8B/	16ddd\LL	.
.	16fff\	.
8g 8d 8B/	16gg\	.
.	16fff\	.
8gJ 8d 8B/	16ddd\	.
.	16fff\JJ	.
=69	=69	=69
4g 4e 4c/	16ccc\LL	.
.	16eee\	.
.	16gg\	.
.	16eee\	.
8r	16ccc\	.
.	16eee\JJ	.
=70	=70	=70
*clefF4	*	*
*Xtremolo	*	*
8cL 8A\	16ccc\LL	.
.	16eee\	.
8c 8A\	16aa\	.
.	16eee\	.
8cJ 8A\	16gg\	.
.	16eee\JJ	.
=71	=71	=71
4c 4A\	16ff#X\LL	.
.	16eee\	.
.	16ddd\	.
.	16ccc\	.
8r	16bb\	.
.	16aa\JJ	.
=72	=72	=72
!	!LO:TUP:a:problem=klamra łukowa	!
8BL 8G\	24gg\LL	.
.	24aa\	.
.	24gg\JJ	.
8c 8A\	16ff#X\LL	rf
.	16aa\	.
8cJ 8A\	16dd\	.
.	16ff#\JJ	.
=73	=73	=73
!	!LO:TUP:a:problem=klamra łukowa	!
8BL 8G\	24gg\LL	.
.	24aa\	.
.	24gg\JJ	.
8c 8A\	16ff#X\LL	rf
.	16aa\	.
8cJ 8A\	16dd\	.
.	16ff#\JJ	.
=74	=74	=74
4B 4G\	16gg\LL	.
.	16bb\	.
.	16dd\	.
.	16bb\	.
8r	16b\	.
.	16bb\JJ	.
!!LO:PB:g=original
=75	=75	=75
!	!LO:TX:t=P:problem=mixed beam	!
4.r	8g/L	.
.	8ddd\	.
.	8bb\J	.
=76	=76	=76
4.r	8gg\L	.
.	8.fff\	.
.	16eee\Jk	.
=77	=77	=77
4.r	(16ddd\LL	.
.	16ccc\	.
.	16bb\	.
.	16ccc\	.
.	16bb\	>
.	16aa\JJ)	.
=78	=78	=78
4.r	16gg\LL	.
.	16ff#X\	.
.	16gg\	.
.	16aa\	.
.	16gg\	.
.	16ff#\JJ	]
=79	=79	=79
4.r	(16gg\LL	.
!	!LO:SIC:v:o=16ff\	!
.	16ff#	.
.	16gg\	.
.	16aa\	.
.	16gg\	.
!	!LO:SIC:v:o=16ff\JJ)	!
.	16ff#JJ)	.
=80	=80	=80
4.r	4.ffn\	.
=81	=81	=81
*clefG2	*	*
*k[e-b-a-]	*k[e-b-a-]	*
*	*tuplet	*
!	!LO:TUP:a:problem=klamra łukowa	!LO:DY:t=p dolce
8gL 8e- 8c/	24ee-\LL	p
.	24ff\	.
.	24gg\JJ	.
8g 8e- 8c/	8.cc\L	.
8gJ 8e- 8c/	.	.
.	16ee-\Jk	.
=82	=82	=82
*tremolo	*	*
8gL 8f 8Bn/	(16gg\LL	.
.	16ff\JJ)	.
8g 8f 8B/	4dd\	.
8gJ 8f 8B/	.	.
=83	=83	=83
8gL 8e- 8c/	(16cc\LL	.
.	16bn\	.
8g 8e- 8c/	16cc\	.
.	16dd\)	.
8gJ 8e- 8c/	16ee-\	.
.	16cc\JJ	.
!!LO:LB:g=original
=84	=84	=84
8dL 8Bn 8G/	16dd\LL	.
.	16bn\JJ	.
8d 8B 8G/	4g/	.
8dJ 8B 8G/	.	.
=85	=85	=85
8cL 8A-/	(16cc\LL	.
.	16bn\	.
8c 8A-/	16cc\	.
.	16dd\	.
8cJ 8A-/	16ee-\	.
.	16een\JJ)	.
=86	=86	=86
8fL 8c 8A-/	16ff\LL	.
.	16cc\JJ	.
8f 8c 8A-/	8.aa-\L	.
8fJ 8c 8A-/	.	.
.	16gg\Jk	.
=87	=87	=87
8a-L 8f 8B-/	16ff\LL	.
.	16ee-\	.
8a- 8f 8B-/	16dd\	.
.	16cc\JJ	.
!	!LO:TUP:a:problem=klamra łukowa	!
8a-J 8f 8B-/	24b-\LL	.
.	24cc\	.
.	24dd\JJ	.
=88	=88	=88
8gL 8e-/	16ff\LL	.
.	16ee-\JJ	.
8g 8e-/	4ee-\	.
8gJ 8e-/	.	.
*Xtremolo	*	*
=89	=89	=89
8fL 8d 8B-/	8.ff\L	.
8f 8d 8B-/	.	.
.	16gg\Jk	.
!	!LO:TUP:a:problem=klamra łukowa	!
8enJ 8c#X 8B-/	24een\LL	rf
.	24ff\	.
.	24gg\JJ	.
=90	=90	=90
*tremolo	*	*
8fL 8d 8B-/	16ff\LL	.
.	16bb-\	.
8f 8d 8B-/	16dd\	.
.	16bb-\	.
8fJ 8d 8B-/	16b-\	.
.	16bb-\JJ	.
*Xtremolo	*	*
=91	=91	=91
8gL 8e- 8B-/	8.gg\L	rf
8g 8e- 8B-/	.	.
.	16aa-\Jk	.
!	!LO:TUP:a:problem=klamra łukowa	!
8fJ 8d 8B-/	24ff\LL	.
.	24gg\	.
.	24aa-\JJ	.
!!LO:LB:g=original
=92	=92	=92
*tremolo	*	*
8gL 8e- 8B-/	16gg\LL	.
.	16bb-\	.
8g 8e- 8B-/	16ee-\	.
.	16bb-\	.
8gJ 8e- 8B-/	16b-\	.
.	16bb-\JJ	.
=93	=93	=93
8e-L 8c 8B-/	8.aan\L	.
8e- 8c 8B-/	.	.
.	16bb-\Jk	.
!	!LO:TUP:a:problem=klamra łukowa	!
8e-J 8c 8B-/	24aan\LL	.
.	24bb-\	.
.	24ccc\JJ	.
=94	=94	=94
!	!LO:SIC:v:o=16aa-\LL	!
8e-L 8c 8B-/	16aaLL	.
.	16ccc\	.
8e- 8c 8B-/	16gg-X\	.
.	16ccc\	.
8e-J 8c 8B-/	16ee-\	.
.	16ccc\JJ	.
=95	=95	=95
8e-L 8c 8B-/	16cc\LL	.
.	16eee-\	.
8e- 8c 8B-/	16ccc\	.
.	16eee-\	.
8e-J 8c 8B-/	16aan\	.
.	16eee-\JJ	.
*Xtremolo	*	*
=96	=96	=96
4d 4B-/	16bb-\LL	.
.	16ddd\	.
.	16ff\	.
.	16ddd\	.
8r	16dd\	.
.	16ddd\JJ	.
=97	=97	=97
!LO:TX:a:i:t=al piacere	!LO:TX:t=P:problem=mixed beam	!
4.r	16b-\LL	.
.	16ddd\	.
.	16f/	.
.	16ddd\	.
.	16d/	.
.	16ddd\JJ	.
=98	=98	=98
*clefF4	*	*
16BBB-/LL	4B-/	.
16BB-/	.	.
16BBB-/	.	.
16C/	.	.
!	!LO:TX:b:i:t=tempo primo	!
16BBB-/	8r	.
16D/JJ	.	.
=99	=99	=99
*tremolo	*	*
!	!LO:TX:a:i:cj:t=dolce	!
!	!LO:TUP:a:problem=klamra łukowa	!
8B-L 8G 8E-\	24gg\LL	pp
.	24aa-\	.
.	24bb-\JJ	.
8B- 8G 8E-\	8.ee-\L	.
8B-J 8G 8E-\	.	.
.	16gg\Jk	.
!!LO:LB:g=original
=100	=100	=100
8B-L 8A- 8D\	(16bb-\LL	.
.	16aa-\JJ)	.
8B- 8A- 8D\	4ff\	.
8B-J 8A- 8D\	.	.
=101	=101	=101
8B-L 8G 8E-\	16ee-\LL	.
.	16dd\	.
8B- 8G 8E-\	16ee-\	.
.	16ff\	.
8B-J 8G 8E-\	16gg\	.
.	16ee-\JJ	.
=102	=102	=102
8FL 8D 8BB-\	16ff\LL	.
.	16dd\JJ	.
8F 8D 8BB-\	4b-\	.
8FJ 8D 8BB-\	.	.
=103	=103	=103
8E-L 8BB- 8GG/	16ee-\LL	.
.	16dd\	.
8E- 8BB- 8GG/	16ee-\	.
.	16ff\JJ	.
!	!LO:TUP:a:problem=klamra łukowa	!
8E-J 8BB- 8GG/	24gg\LL	.
.	24ff\	.
.	24ee-\JJ	.
=104	=104	=104
8FL 8C 8AA-/	16cc\LL	.
.	16aa-\JJ	.
8F 8C 8AA-/	8.ff\L	.
8FJ 8C 8AA-/	.	.
.	16ee-\Jk	.
=105	=105	=105
8A-L 8F 8BB-/	(16ee-\LL	.
.	16dd\	.
8A- 8F 8BB-/	16cc\	.
.	16b-\	.
8A-J 8F 8BB-/	16cc\	.
.	16dd\JJ)	.
=106	=106	=106
4.r;	4.r;	.
=107	=107	=107
*k[]	*k[]	*
*Xtremolo	*	*
!	!LO:TUP:a:problem=klamra łukowa	!
(16ELL 16C\	24ee\LL	ff
.	24ff\	.
16G\	.	.
.	24gg\JJ	.
16E 16C\	8.cc\L	.
16G\	.	.
16E 16C\	.	.
16G\JJ)	16ee\Jk	.
=108	=108	=108
(16FLL 16BB\	16gg\LL	.
16G\	16ff\JJ	.
16F 16BB\	4dd\	.
16G\	.	.
16F 16BB\	.	.
16G\JJ)	.	.
=109	=109	=109
*tremolo	*	*
16ELL 16C\	(16cc\LL	.
16G\	16b\	.
16E 16C\	16cc\	.
16G\	16dd\	.
16E 16C\	16ee\	.
16G\JJ	16cc\JJ)	.
!!LO:PB:g=original
=110	=110	=110
16DLL 16BB 16GG\	16dd\LL	.
16G\	16b\JJ	.
16D 16BB 16GG\	4g/	.
16G\	.	.
16D 16BB 16GG\	.	.
16G\JJ	.	.
=111	=111	=111
16GLL 16E\	16cc\LL	.
16c\	16b\	.
16G 16E\	16cc\	.
16c\	16dd\JJ	.
*	*Xtuplet	*
!	!LO:TUP:a:problem=klamra łukowa	!
16G 16E\	24ee\LL	.
.	24dd\	.
16c\JJ	.	.
.	24cc\JJ	.
=112	=112	=112
16ALL 16F\	16a\LL	.
16d\	16ff\JJ	.
16A 16F\	8.dd\L	.
16d\	.	.
16A 16F\	.	.
16d\JJ	16cc\Jk	.
=113	=113	=113
16dLL 16G\	(16cc\LL	<
16f\	16b\	.
16d 16G\	16a\	[
16f\	16g\	.
16d 16G\	16a\	.
16f\JJ	16b\JJ)	.
*Xtremolo	*	*
=114	=114	=114
8GL 8E 8C\	8.gg\L	f
8G 8E 8C\	.	.
.	16aa\Jk	.
!	!LO:TUP:a:problem=klamra łukowa	!
8F#XJ 8D#X 8C\	24ff#X\LL	rf
.	24gg\	.
.	24aa\JJ	.
=115	=115	=115
*tremolo	*	*
8GL 8E 8C\	16gg\LL	.
.	16ccc\	.
8G 8E 8C\	16ee\	.
.	16ccc\	.
8GJ 8E 8C\	16cc\	.
.	16ccc\JJ	.
*Xtremolo	*	*
=116	=116	=116
8AL 8F 8C\	8.aa\L	.
8A 8F 8C\	.	.
.	16bb\Jk	.
8G#XJ 8E 8C\	24gg#X\LL	rf
.	24aa\	.
.	24bb\JJ	.
=117	=117	=117
*tremolo	*	*
8AL 8F 8C\	16aa\LL	.
.	16ddd\	.
8A 8F 8C\	16ff\	.
.	16ddd\	.
8AJ 8F 8C\	16dd\	.
.	16ddd\JJ	.
=118	=118	=118
8FL 8D 8C\	16ff\LL	.
.	16bb\	.
8F 8D 8C\	16dd\	.
.	16bb\	.
8FJ 8D 8C\	16ff\	.
.	16bb\JJ	.
!!LO:LB:g=original
=119	=119	=119
8FL 8D 8C\	16aa-X\LL	.
.	16bb\	.
8F 8D 8C\	16ff\	.
.	16bb\	.
8FJ 8D 8C\	16dd\	.
.	16bb\JJ	.
*Xtremolo	*	*
=120	=120	=120
8GL 8E 8C\	8.gg\L	.
8G 8E 8C\	.	.
.	16aan\Jk	.
8F#XJ 8D#X 8C\	24ff#X\LL	rf
.	24gg\	.
.	24aa\JJ	.
=121	=121	=121
*tremolo	*	*
8GL 8E 8C\	16gg\LL	.
.	16ccc\	.
8G 8E 8C\	16ee\	.
.	16ccc\	.
8GJ 8E 8C\	16cc\	.
.	16ccc\JJ	.
*Xtremolo	*	*
=122	=122	=122
8AL 8F 8C\	8.aa\L	.
8A 8F 8C\	.	.
.	16bb\Jk	.
!	!LO:TUP:a:problem=klamra łukowa	!
8G#XJ 8E 8C\	24gg#X\LL	rf
.	24aa\	.
.	24bb\JJ	.
=123	=123	=123
*tremolo	*	*
8AL 8F 8C\	16aa\LL	.
.	16ddd\	.
8A 8F 8C\	16ff\	.
.	16ddd\	.
8AJ 8F 8C\	16dd\	.
.	16ddd\JJ	.
=124	=124	=124
8FL 8D 8C\	16ff\LL	.
.	16bb\	.
8F 8D 8C\	16dd\	.
.	16bb\	.
8FJ 8D 8C\	16ff\	.
.	16bb\JJ	.
=125	=125	=125
8FL 8D 8C\	16aa-X\LL	.
.	16bb\	.
8F 8D 8C\	16ff\	.
.	16bb\	.
8FJ 8D 8C\	16dd\	.
.	16bb\JJ	.
*Xtremolo	*	*
=126	=126	=126
4E 4C\	16cc\LL	.
.	16eee\	.
.	16ccc\	.
.	16eee\	.
8r	16gg\	.
.	16eee\JJ	.
=127	=127	=127
16C\LL	4ee\	.
16c\	.	.
16E\	.	.
16c\	.	.
16G\	8r	.
16c\JJ	.	.
!!LO:LB:g=original
=128	=128	=128
16FF\LL	8r	.
16F\	.	.
!	!	!LO:DY:t=rf dolce
16AA\	(8aaL 8ff\	rf
16F\	.	.
16D\	8ffJ 8dd\)	.
16F\JJ	.	.
=129	=129	=129
16GG\LL	8r	.
16G\	.	.
16C\	(8ggL 8ee\	.
16G\	.	.
16E\	8eeJ 8cc\)	.
16G\JJ	.	.
=130	=130	=130
16GG\LL	8r	.
16G\	.	.
16BB\	(8ffL 8dd\	.
16G\	.	.
16D\	8ddJ 8b\)	.
16G\JJ	.	.
=131	=131	=131
4E 4C\	16cc\LL	<
.	16eee\	.
.	16ccc\	[
.	16eee\	.
8r	16gg\	.
.	16eee\JJ	.
=132	=132	=132
16C\LL	4ee\	.
16c\	.	.
16E\	.	.
16c\	.	.
16G\	8r	.
16c\JJ	.	.
=133	=133	=133
16FF\LL	8r	.
16F\	.	.
!	!LO:TX:b:i:t=dolce	!
16AA\	(8aaL 8ff\	.
16F\	.	.
16D\	8ffJ 8dd\)	.
16F\JJ	.	.
=134	=134	=134
16GG\LL	8r	.
16G\	.	.
16C\	(8ggL 8ee\	.
16G\	.	.
16E\	8eeJ 8cc\)	.
16G\JJ	.	.
=135	=135	=135
16GG\LL	8r	.
16G\	.	.
16BB\	(8ffL 8dd\	.
16G\	.	.
16D\	8ddJ 8b\)	.
16G\JJ	.	.
=136	=136	=136
*	*tuplet	*
!	!LO:TUP:a:problem=klamra łukowa	!
16CC/LL	24ee\LL	p
.	24ff\	.
16C/	.	.
.	24gg\JJ	.
16EE/	8.cc\L	.
16C/	.	.
16GG/	.	.
16C/JJ	16ee\Jk	.
!!LO:LB:g=original
=137	=137	=137
16GG/LL	(16gg\LL	.
16G/	16ff\JJ)	.
16BB/	4dd\	.
16G/	.	.
16D/	.	.
16G/JJ	.	.
=138	=138	=138
*Xtremolo	*	*
8GL 8GG/	8bbL 8gg 8ff 8dd\	ff
8GJ 8GG/	8bbJ 8gg 8ff 8dd\	.
8r	8r	.
=139	=139	=139
8CL 8CC/	8cccL 8gg 8ee 8cc\	p
8CJ 8CC/	8cccJ 8gg 8ee 8cc\	.
8r	8r	.
=140	=140	=140
*	*tuplet	*
!	!LO:TUP:a:problem=klamra łukowa	!
16CC/LL	24ee\LL	.
.	24ff\	.
16C/	.	.
.	24gg\JJ	.
16EE/	8.cc\L	.
16C/	.	.
16GG/	.	.
16C/JJ	16ee\Jk	.
=141	=141	=141
16GG/LL	(16gg\LL	.
16G/	16ff\JJ)	.
16BB/	4dd\	.
16G/	.	.
16D/	.	.
16G/JJ	.	.
=142	=142	=142
8GL 8GG/	8bbL 8gg 8ff 8dd\	ff
8GJ 8GG/	8bbJ 8gg 8ff 8dd\	.
8r	8r	.
=143	=143	=143
8CL 8CC/	8cccL 8gg 8ee 8cc\	.
8CJ 8CC/	8cccJ 8gg 8ee 8cc\	.
8r	8r	.
=144	=144	=144
8cL 8C\	8ccL 8g 8e/	p
8cJ 8C\	8ccJ 8g 8e/	.
8r	8r	.
=145	=145	=145
8CL 8CC/	4.r	pp
8CJ 8CC/	.	.
8r	.	.
==	==	==
*-	*-	*-
!!!system-decoration: {*}
!!!ENC: Filip Voros
!!!END: 2022-07-27
!!!EED: Andrzej Kubiczek
!!!EEV: 2023-06-06
!!!YEC: Copyright 2022 Narodowy Instytut Fryderyka Chopina (https://polishscores.org)
!!!YEM: License CC-BY-4.0 (https://creativecommons.org/licenses/by/4.0)
